X: 24773
T: Mag Mor
R: reel
M: 4/4
K: Dmixolydian
|:DFFE FGAD|cBAG FGAE|DFFE FGAF|~G3F EFGE|
DFFE FGAD|cBAG FGAE|DFFE FGAd|1 cAFD G2GF:|2 cAFD G2GA||
|:Beef gedB|AD~D2 AD~D2|Beef gfgb|afdf a2a2|Beef gedB|
AD~D2 AD~D2|1 ~E3G ~F3A|~G3B c2dc:|2 E3G ~F3B|cAFD G2G2||

